!!!!SEGMENT: pl-sa--172-a-v-2--001-005_szczurowski-jacek--msza-swiateczna-qui-tollis.krn
!!!cenid: 17xx:265
!!!COM: Szczurowski, Jacek
!!!COM-rismID: pe30017605
!!!CDT: 1716/08/15-~1733
!!!CNT: Polish
!!!OPR: Msza świąteczna
!!!OTL: Qui tollis
!!!OMV: 005
!!!PDT:
!!!AGN: Sacred; Mass
!!!YEC: Copyright 2022 Narodowy Instytut Fryderyka Chopina (https://polishscores.org)
!!!YEM: License CC-BY-4.0 (https://creativecommons.org/licenses/by/4.0)
!!!SMS-siglum: PL-SA
!!!SMS-shelfmark: 172/A V 2
!!!SMS-shelfwork: 001-005 M
!!!NIFC-rismSourceID: 1001035618
!!!NIFC-rismChildID: 1001035618
!!!NIFC-islandoraID: none
!!!URL-pdf-islandora:
!!!URL-scan: https://bc.bdsandomierz.pl/dlibra/publication/1506/edition/1474/content @EN{Scan in the Sandomierz Diocese Digital Library} @PL{Skany w portalu Cyfrowa Biblioteka Diecezjalna w Sandomierzu}
!!!IIIF:
!!!ONB-nifc: UWAGA: części Mszy: Kyrie, Christe, Et in terra, Laudamus, Qui tollis, Quoniam, Patrem, Et Incarnatus, Ressurexit, Sanctus, Osanna, Benedictus, Agnus Dei
!!!AIN: 2 cor 1 organ 2 soprn 2 violn
!!!key: e
**kern	**fba	**kern	**kern	**kern	**text	**kern	**text	**kern	**kern
*	*	*group3	*group3	*group2	*	*group2	*	*group1	*group1
*part7	*	*part6	*part5	*part4	*	*part3	*	*part2	*part1
*staff7	*	*staff6	*staff5	*staff4	*	*staff3	*	*staff2	*staff1
*Iorgan	*	*Ivioln	*Ivioln	*Isoprn	*	*Isoprn	*	*Icor	*Icor
*I"Organo:	*	*I"Violino 2:d:	*I"Violino Primo	*I"Soprano 2:do:	*	*I"Soprano Primo.	*	*I"Corno 2.do Ex D:	*I"Corno Primo Ex D:
*I'org	*	*I'vl 2	*I'vl 1	*I'S 2	*	*I'S 1	*	*I'cor 2	*I'cor 1
*ICklav	*	*ICstr	*ICstr	*ICvox	*	*ICvox	*	*ICbras	*ICbras
*IGcont	*	*	*	*IGsolo	*	*IGsolo	*	*	*
*mI"Organo	*	*mI"Violino II	*mI"Violino I	*mI"Soprano II	*	*mI"Soprano I	*	*mI"Corno II in D	*mI"Corno I in D
*clefF4	*	*clefG2	*clefG2	*clefC1	*	*clefC1	*	*clefG2	*clefG2
*	*	*	*	*mclefG2	*	*mclefG2	*	*	*
*	*	*	*	*	*	*	*	*ITrd6c10	*ITrd6c10
*k[f#]	*	*k[f#]	*k[f#]	*k[f#]	*	*k[f#]	*	*k[f#]	*k[f#]
*e:	*	*e:	*e:	*e:	*	*e:	*	*e:	*e:
*M4/4	*	*M4/4	*M4/4	*M4/4	*	*M4/4	*	*M4/4	*M4/4
*met(c)	*	*met(C.)	*met(c)	*met(c)	*	*met(C.)	*	*met(c)	*met(c)
*mmet(c)	*	*mmet(c)	*mmet(c)	*mmet(c)	*	*mmet(c)	*	*mmet(c)	*mmet(c)
*	*	*	*	*	*	*	*	*tacet	*tacet
=1	=1	=1	=1	=1	=1	=1	=1	=1	=1
!!!OMD:
!!!OMD-mod: Adagio
*	*	*	*	*	*	*2\right	*	*	*
!LO:TX:a:t=Adagio:mod=	!	!LO:TX:a:t=adagio:mod=	!LO:TX:a:B:t=adagio:mod=	!	!	!LO:TX:a:B:t=Adagio:mod=	!	!LO:TX:a:t=Tacet	!LO:TX:a:t=Tacet
!	!	!	!	!LO:TX:a:t=P:problem=pojedyncze ósemki i szesnastki mają chorągiewki z lewej strony kreski	!	!LO:TX:a:t=P:problem=pojedyncze ósemki i szesnastki mają chorągiewki z lewej strony kreski	!	!	!
8E\L	.	8g/L	8ee\L	2g/	Qui-	2ee\	Qui-	1ryy	1ryy
8E\	.	8g/	8ee\	.	.	.	.	.	.
8E\	.	8g/	8ee\	.	.	.	.	.	.
8E\J	.	8g/J	8ee\J	.	.	.	.	.	.
8A\L	.	8cc\L	8ee\L	4cc\	-to-	4ee\	-to-	.	.
8A\	.	8cc\	8ee\	.	.	.	.	.	.
8A\	.	8cc\	8ee\	8cc\	-lis	8ee\	-lis	.	.
8A\J	.	8cc\J	8ee\J	8cc\	pec-	8ee\	pec-	.	.
=2	=2	=2	=2	=2	=2	=2	=2	=2	=2
8B\L	#	8b\L	8dd#X\L	4.b\	-ca-	4.ff#\	-ca-	1ryy	1ryy
8B\	.	8b\	8dd#\	.	.	.	.	.	.
8A\	.	8b\	8dd#\	.	.	.	.	.	.
8A\J	.	8b\J	8dd#\J	8b\	-ta	8ff#\	-ta	.	.
8G\L	6	8b/L	8ee\L	4b\	mun-	4ee\	mun-	.	.
8G\	.	8b/	8ee\	.	.	.	.	.	.
8E\	.	8g/	8b\	4g\	-di	4b\	-di	.	.
8E\J	.	8g/J	8b\J	.	.	.	.	.	.
=3	=3	=3	=3	=3	=3	=3	=3	=3	=3
8A\L	.	8cc\L	8ee\L	4cc\	mi-	4cc\	mi-	1ryy	1ryy
8A\	.	16cc\L	16ee\L	.	.	.	.	.	.
.	.	16cc\JJ	16ee\JJ	.	.	.	.	.	.
!	!	!LO:LB:g=original	!	!	!	!	!	!	!
8G\	.	8cc#X\L	8ee\L	4a\	-ſe-	4cc#X\	-se-	.	.
8G\J	.	16cc#\L	16ee\L	.	.	.	.	.	.
.	.	16cc#\JJ	16ee\JJ	.	.	.	.	.	.
8F#\L	.	8a/L	8ddn\L	4a\	-re-	4dd\	-re-	.	.
8F#\	6	8a/	8dd\	.	.	.	.	.	.
8F#\	6\	8a/	8dd#X\	4a\	-re	4dd#X\	-re	.	.
8F#\J	.	8a/J	8dd#\J	.	.	.	.	.	.
=4	=4	=4	=4	=4	=4	=4	=4	=4	=4
8E\L	.	16g/LL	16ee\LL	4g/	no-	4ee\	no-	1ryy	1ryy
.	.	16g/	16ee\	.	.	.	.	.	.
8E\	.	16g/	16ee\	.	.	.	.	.	.
.	.	16g/JJ	16ee\JJ	.	.	.	.	.	.
8A\	.	16f#/LL	16a/LL	4f#/	.	4a\	.	.	.
.	.	16f#/	16a/	.	.	.	.	.	.
8A\J	.	16f#/	16a/	.	.	.	.	.	.
.	.	16f#/JJ	16a/JJ	.	.	.	.	.	.
!LO:TX:a:t=P:problem=mixed beam	!	!	!	!	!	!	!	!	!
8B\L	4	8e/L	8g/L	8e/	.	8g/	-bis	.	.
8BB/	#	8d#X/J	8f#/J	8d#X/	-bis	8r	.	.	.
!	!	!	!	!	!	!	!LO:MO:null:mod=mi-	!	!
8BB/	.	8r	8r	8r	.	4gg\	.	.	.
8BB/J	.	8e/	8g/	8ee\	mi-	.	.	.	.
!	!	!	!	!LO:LB:g=original	!	!LO:LB:g=original	!	!	!
=5	=5	=5	=5	=5	=5	=5	=5	=5	=5
!	!	!	!	!	!	!	!LO:MO:null:mod=.	!	!
8BB/L	.	8.d#X/L	8.f#/L	8.dd#X\	.	8.ff#\	mi-	1ryy	1ryy
8BB/	4	.	.	.	.	.	.	.	.
.	.	16e/K	16g/K	16ee\	-se-	16gg\	-se-	.	.
8BB/	7	8.f#/	8.a/	8.ff#\	-re-	8.aa\	-re-	.	.
8BB/J	#	.	.	.	.	.	.	.	.
.	.	16e/Jk	16g/Jk	16ee\	-re	16gg\	-re	.	.
8BB/L	.	8.d#/L	8.f#/L	4dd#X\	no-	4ff#\	no-	.	.
8BB/	4	.	.	.	.	.	.	.	.
.	.	16f#/K	16dd#X/K	.	.	.	.	.	.
8BB/	7	8.g/	8.ee/	8ee\	-bis	8ee\	-bis	.	.
8BB/J	4	.	.	8r	.	8r	.	.	.
.	.	16g/Jk	16b/Jk	.	.	.	.	.	.
!	!	!	!LO:LB:g=original	!	!	!	!	!	!
=6	=6	=6	=6	=6	=6	=6	=6	=6	=6
8BB/L	#	8.d#X/L	8.f#/L	8.f#/	mi-	8.dd#X\	mi-	1ryy	1ryy
8BB/	4	.	.	.	.	.	.	.	.
.	.	16e/K	16g/K	16g/	-se-	16ee\	-se-	.	.
8BB/	7	8.f#/	8.a/	8.a/	-re-	8.ff#\	-re-	.	.
8BB/J	4	.	.	.	.	.	.	.	.
.	.	16e/Jk	16g/Jk	16g/	-re	16ee\	-re	.	.
8BB/L	#	8.d#/L	8.f#/L	4f#/	no-	4dd#X\	no-	.	.
8BB/J	.	.	.	.	.	.	.	.	.
.	.	16f#/K	16dd#X/K	.	.	.	.	.	.
8E\L	6	8.g/	8.ee/	8g/	-bis	8ee\	-bis	.	.
8F#\J	5	.	.	8a\	qui	8ccn\	qui	.	.
.	.	16a/Jk	16ddn/Jk	.	.	.	.	.	.
=7	=7	=7	=7	=7	=7	=7	=7	=7	=7
8F#\L	.	8a/L	8dd\L	8a\	tol-	8cc\	tol-	1ryy	1ryy
16F#\L	.	16a/L	16dd\L	16a\	-lis	16cc\	-lis	.	.
16F#\JJ	.	16a/JJ	16dd\JJ	16a\	pec-	16cc\	pec-	.	.
8F#\L	.	16a/LL	16dd\LL	8a\	-ca-	8cc\	-ca-	.	.
.	.	16a/	16dd\	.	.	.	.	.	.
8F#\J	.	16a/	16dd\	8a\	-ta	8cc\	-ta	.	.
.	.	16a/JJ	16dd\JJ	.	.	.	.	.	.
8G\L	.	16b\LL	16dd\LL	8g\L	mun-	8b\L	mun-	.	.
.	.	16b\	16dd\	.	.	.	.	.	.
8B\	6	16b\	16dd\	8b\J	.	8dd\J	.	.	.
.	.	16b\JJ	16dd\JJ	.	.	.	.	.	.
8A\	6	16a/LL	16ccn\LL	8a\L	.	8cc\L	.	.	.
.	.	16a/	16cc\	.	.	.	.	.	.
8D\J	.	16a/	16cc\	8f#\J	.	8a\J	.	.	.
.	.	16a/JJ	16cc\JJ	.	.	.	.	.	.
!LO:LB:g=original	!	!LO:LB:g=original	!	!LO:PB:g=original	!	!LO:LB:g=original	!	!	!
=8	=8	=8	=8	=8	=8	=8	=8	=8	=8
!	!	!	!	!LO:SIC:v:o=4g#X/	!	!	!	!	!
8G\L	.	16g/LL	16b/LL	4g	-di	4b\	-di	1ryy	1ryy
.	.	16g/	16b/	.	.	.	.	.	.
8G\	.	16g/	16b/	.	.	.	.	.	.
.	.	16g/JJ	16b/JJ	.	.	.	.	.	.
8F#\	6	16a/LL	16dd\LL	8a\	sus-	8dd\	sus-	.	.
.	.	16a/	16dd\	.	.	.	.	.	.
8F#\J	.	16a/	16dd\	16a\	-ci-	16dd\	-ci-	.	.
.	.	16a/JJ	16dd\JJ	16a\	-pe	16dd\	-pe	.	.
8F#\L	6\	16a/LL	16dd#X\LL	8a\	de-	8dd#X\	de-	.	.
.	.	16a/	16dd#\	.	.	.	.	.	.
8F#\	.	16a/	16dd#\	8a\	-pre-	8dd#\	-pre-	.	.
.	.	16a/JJ	16dd#\JJ	.	.	.	.	.	.
!	!	!LO:TX:a:t=P:problem=mixed beam	!	!LO:SIC:v:o=8g#\	!	!	!	!	!
8E\	.	16g/LL	16ee\LL	8g	-ca-	8ee\	-ca-	.	.
.	.	16g/	16ee\	.	.	.	.	.	.
8G\J	6	16ee\	16gg\	8ee\	-ti-	8gg\	-ti-	.	.
.	.	16ee\JJ	16gg\JJ	.	.	.	.	.	.
=9	=9	=9	=9	=9	=9	=9	=9	=9	=9
!LO:TX:a:t=P:problem=mixed beam	!	!	!	!	!	!	!	!	!
8A\L	.	16dd#X\LL	16ff#\LL	8dd#X\	-o-	8ff#\	-o-	1ryy	1ryy
.	.	16dd#\	16ff#\	.	.	.	.	.	.
8A#X\	.	16ee\	16gg\	8ee\	-nem	8gg\	-nem	.	.
.	.	16ee\JJ	16gg\JJ	.	.	.	.	.	.
!	!	!	!	!	!	!	!LO:MO:null:mod=no-	!	!
8B\	4	16ee\LL	16gg\LL	8ee\	no-	8gg\L	nos-	.	.
.	.	16ee\	16gg\	.	.	.	.	.	.
!	!	!	!	!LO:N:vis=8	!	!	!	!	!
8BB/J	#	16dd#X\	16ff#\	16ee\LL	.	8ff#\J	.	.	.
!	!	!	!	!LO:N:vis=8	!	!	!	!	!
.	.	16dd#\JJ	16ff#\JJ	16dd#\JJ	.	.	.	.	.
*2\right	*	*2\right	*2\right	*2\right	*	*	*	*	*
!	!	!	!	!LO:SIC:v:o=2a\	!	!	!LO:MO:null:mod=-stram	!	!
2E\	.	2ee\	2ee\	2ee	-stram	2ee\	-tram	.	.
!	!	!LO:TX:a:t=P:problem=zakończenie bez znaku podwójnej repetycji	!	!	!	!	!	!LO:TX:a:t=P:problem=zakończenie bez znaku podwójnej repetycji	!LO:TX:a:t=P:problem=zakończenie bez znaku podwójnej repetycji
==	==	==	==	==	==	==	==	==	==
*-	*-	*-	*-	*-	*-	*-	*-	*-	*-
!!!system-decoration: [(g1)][(g2)][(g3)]s7
!!!RDF**kern: > = above
!!!RDF**kern: < = below
!!!filter-modern: sic -sq | shed -e "s/TX(.*):t=P:/tx$1:t=P:/LG" | shed -e "s/^(\d+[\/\\]right)/$1yy/I; s/^(\d+[\/\\]left)/$1yy/I" | shed -e "s/:rj/:RJ/L" | shed -e "s/LO:DY:(a|b|rj)/LO:dy:$1/L" | autostem -r | tie -s | shed -k -e "s/[<>]//g" | humtr -p | modori -m
!!!ENC: Tomasz Grochalski
!!!END: 2020-04-16
!!!EED: Marta Lawrence
!!!EEV: 2020-09-21
!!!ENC-modern: Andrzej Borzym
!!!END-modern: 2022-06-29
